svg/section-special-report.svg

<svg xmlns="http://www.w3.org/2000/svg" width="100" height="100" viewBox="0 0 100 100"><path d="M77.397.5l15.647 16.317v81.683h-81.634v-13.638h-5.455v-16.317h5.455v-10.91h-5.455v-16.318h5.455v-10.862h-5.455v-16.365h5.455v-13.59h65.987zm-65.987 19.045v5.455h8.135v-5.455h-8.135zm0 27.227v5.455h8.135v-5.455h-8.135zm0 27.228v5.455h8.135v-5.455h-8.135zm52.206-20.768l-2.058-12.011 8.709-8.518-12.059-1.723-5.359-10.91-5.407 10.91-12.059 1.723 8.757 8.518-2.058 12.011 10.767-5.694 10.767 5.694z"/></svg>

<?xml version="1.0" encoding="utf-8"?>
<!-- Generator: Adobe Illustrator 13.0.0, SVG Export Plug-In . SVG Version: 6.00 Build 14948)  -->
<!DOCTYPE svg PUBLIC "-//W3C//DTD SVG 1.1//EN" "http://www.w3.org/Graphics/SVG/1.1/DTD/svg11.dtd">
<svg version="1.1" id="Layer_1" xmlns="http://www.w3.org/2000/svg" xmlns:xlink="http://www.w3.org/1999/xlink" x="0px" y="0px"
	 width="100px" height="100px" viewBox="0 0 100 100" enable-background="new 0 0 100 100" xml:space="preserve">
<g>
	<path d="M77.397,0.5l15.647,16.317V98.5H11.41V84.862H5.955V68.545h5.455v-10.91H5.955V41.317h5.455V30.455H5.955V14.09h5.455V0.5
		H77.397z M11.41,19.545V25h8.135v-5.455H11.41z M11.41,46.772v5.455h8.135v-5.455H11.41z M11.41,74v5.455h8.135V74H11.41z
		 M63.616,53.232l-2.058-12.011l8.709-8.518l-12.059-1.723l-5.359-10.91l-5.407,10.91l-12.059,1.723l8.757,8.518l-2.058,12.011
		l10.767-5.694L63.616,53.232z"/>
</g>
</svg>
